packages/katcn/src/icons/svg/musicNote-solid.svg

<svg width="24" height="25" viewBox="0 0 24 25" fill="none" xmlns="http://www.w3.org/2000/svg">
<path d="M20.9 1.68174C20.2 1.17643 19.3 1.07536 18.5 1.37855L10.3 4.2083C8.9 4.71361 8 6.02742 8 7.54335V10.9795V15.7294C7.4 15.4262 6.7 15.123 6 15.123C3.8 15.123 2 16.9421 2 19.1655C2 21.3889 3.8 23.208 6 23.208C8.2 23.208 10 21.3889 10 19.1655C10 19.0645 10 18.9634 10 18.8623V18.7613V11.6869L20 8.14973V13.2028C19.4 12.8997 18.7 12.5965 18 12.5965C15.8 12.5965 14 14.4156 14 16.639C14 18.8623 15.8 20.6815 18 20.6815C20.2 20.6815 22 18.8623 22 16.639C22 16.5379 22 16.4368 22 16.3358V16.2347V6.73485V3.80405C22 2.99555 21.6 2.18705 20.9 1.68174Z" fill="black"/>
</svg>

<svg xmlns="http://www.w3.org/2000/svg" fill="none" viewBox="0 0 24 25"><path fill="#000" d="M20.9 1.682c-.7-.506-1.6-.607-2.4-.303l-8.2 2.83C8.9 4.713 8 6.026 8 7.542v8.186c-.6-.303-1.3-.606-2-.606-2.2 0-4 1.82-4 4.043s1.8 4.042 4 4.042 4-1.82 4-4.042v-7.479L20 8.15v5.053c-.6-.303-1.3-.606-2-.606-2.2 0-4 1.819-4 4.042s1.8 4.043 4 4.043 4-1.82 4-4.043V3.804c0-.808-.4-1.617-1.1-2.122"/></svg>
